!!!OTL: 591. Jaegers Lust.
!!!COM: Konradin Kreutzer
!!!ODT: 1823
!!!ARE: Europa, Mitteleuropa, Deutschland
!!!SCT: B0591
!!!TXL: @@DE
!!!YEM: Copyright 1995, estate of Helmut Schaffrath.
**kern	**text
*ICvox	*
*Ivox	*
*clefG2	*
*M6/8	*
*k[]	*
*C:	*
!LO:TX:a:t=Heiter. Alle. (Refrain).	!
{8g	Es
=1	=1
4e	le-
8g	-be,
4g	was
8cc	auf
=2	=2
4.cc	Er-
4g}	-den
{8g	ſtolʒiert
=3	=3
4cc	.
8cc	in
8ccL	grü-
8bJ	.
8cc	-ner
=4	=4
[4.dd	Tracht,
8dd]	.
8r}	.
{8dd	die
=5	=5
8ddL	Wäl-
8bJ	.
8dd	-der
8ddL	und
8bJ	.
8dd	die
=6	=6
4.dd	Fel-
4g}	-der,
{8g	der
=7	=7
4ee	Jä-
8ee	-ger
8ddL	und
8eeJ	.
8dd	die
=8	=8
[4.cc	Jagd!
8cc]	.
8r;}	.
=||	=||
*k[f#]	*
*G:	*
!LO:TX:a:t=Einʒelne.	!
{8cc	2._Wie
=9	=9
4cc	luſ-
8cc	-tig
8ccL	iſt's
8bJ	.
8a	im
=10	=10
4.a	Grünen,
4b}	.
{8b	wenns
=11	=11
8ddL	hel-
8ccJ	.
8a	-le
8ddL	Jagdhorn
8ccJ	.
8a	.
=12	=12
[4.b	ſchallt,
8b]	.
8r}	.
{8b	wenn
=13	=13
4cc	Hirſch'
8cc	und
8ccL	Reh-
8bJ	.
8a	-e
=14	=14
4.a	ſprin-
4b}	-gen,
{8b	wenn's
=15	=15
4dd	blitʒt
8g	und
8aL	dampft
8bJ	.
8a	und
=16	=16
4g	knallt.
4r	.
!LO:TX:a:t=D.C.	!
8r}	.
==	==
!!!AGN: Staende -, Jaeger - Lied
!!!GTL: Jägerlieder
!!!ONB: ESAC (Essen Associative Code) Database: BOEHME
!!!AMT: compound duple
!!!AIN: vox
!!!EED: Helmut Schaffrath
!!!EEV: 1.0
!!@@COMMENT:"Gedicht von Wilb. Müller 1822. Gekürʒter Text nach Kreutʒer."
!!@@END:
!!!Text: W. Müller
!!!URL-scan: https://archive.org/details/BoehmeVtLieder1895/page/n469/mode/2up
!!!ENC: Anna Maria Matuszewska
!!!EEV: 2024/15/07
*-	*-
